assets/img/video-decorator.svg

<svg width="230" height="556" viewBox="0 0 230 556" fill="none" xmlns="http://www.w3.org/2000/svg">
<path opacity="0.04" d="M74.9742 442.526C58.2469 453.295 39.655 459.519 21.2728 464.634C5.11187 469.132 -11.1028 472.878 -27.3711 475.871C-31.8839 476.705 -36.3923 477.476 -40.8963 478.184L-44.0139 478.665C-46.7834 479.097 -49.5575 479.493 -52.3362 479.855L-52.6717 479.9C-55.3875 480.272 -58.0985 480.617 -60.8047 480.938C-69.6679 481.997 -78.717 482.798 -87.3469 482.318C-90.2906 482.158 -93.1874 481.853 -96.0048 481.356C-97.5311 481.09 -99.0361 480.765 -100.52 480.381C-102.949 479.751 -105.304 478.964 -107.587 477.967C-107.97 477.803 -108.351 477.632 -108.727 477.455C-111.014 476.384 -113.154 475.127 -115.172 473.712C-122.563 468.524 -128.216 461.195 -132.57 452.967C-134.746 448.854 -136.596 444.515 -138.174 440.106C-138.37 439.566 -138.559 439.023 -138.771 438.498C-143.962 423.302 -146.746 406.96 -152.235 391.917C-154.125 386.731 -156.333 381.724 -158.857 376.894C-160.09 374.539 -161.386 372.227 -162.747 369.958C-165.971 364.639 -169.592 359.607 -173.573 354.897C-178.913 348.518 -185.164 342.663 -192.724 339.058C-193.73 338.576 -194.761 338.138 -195.815 337.742C-197.15 337.238 -198.528 336.81 -199.946 336.458C-203.826 335.562 -208.003 335.09 -212.439 335.044C-213.302 335.022 -214.165 335.011 -215.033 335.004C-217.756 334.985 -220.491 335.014 -223.207 334.982C-228.185 335.015 -232.869 334.555 -237.214 333.607C-239.548 333.044 -241.748 332.297 -243.803 331.372C-249.272 328.953 -254.061 325.355 -258.299 321.173C-260.323 319.136 -262.265 317.012 -264.062 314.792L-264.123 314.73C-264.737 313.971 -265.343 313.2 -265.929 312.409C-268.639 308.847 -271.111 305.071 -273.301 301.105C-280.8 287.516 -285.067 271.798 -284.38 255.06C-283.455 232.334 -272.742 207.836 -254.082 191.364C-240.642 179.495 -224.222 172.436 -208.285 165.385C-178.619 152.247 -148.98 138.103 -121.783 119.126C-99.7084 103.72 -78.8506 84.9352 -54.4265 75.7018C-46.6062 72.7477 -38.5882 70.9396 -30.673 70.2472C-24.7751 69.7481 -19.1809 69.8091 -13.9456 70.4296C-8.01335 71.1157 -2.46359 72.3712 2.65894 74.1859C7.10622 75.7509 11.2562 77.6919 15.0883 79.999C17.173 81.2498 19.1826 82.6164 21.0966 84.0985C22.5778 85.2324 23.9995 86.4375 25.3617 87.7137L25.5648 87.9181C26.3993 88.6971 27.2034 89.506 27.9774 90.345C33.6635 96.4205 38.4351 103.373 42.2484 111.139C44.6808 115.953 46.8155 121.002 48.7294 126.121C49.8744 129.174 50.9552 132.253 51.9717 135.357C52.2819 136.304 52.5871 137.256 52.8795 138.205C59.8374 160.569 62.1093 184.072 67.5095 206.915C67.5362 207.032 67.5603 207.147 67.5971 207.255C68.7484 211.9 70.2419 216.295 72.0715 220.42C73.3988 223.468 74.8908 226.45 76.5121 229.381C78.982 233.88 81.7381 238.245 84.6307 242.525L85.2692 243.469C89.5113 249.751 94.0565 255.825 98.3241 261.871C99.8379 264.018 101.326 266.16 102.738 268.326C103.649 269.685 104.535 271.047 105.397 272.412C106.013 273.394 106.632 274.379 107.24 275.374C107.849 276.369 108.494 277.42 109.11 278.454C109.514 279.122 109.911 279.793 110.299 280.476C112.699 284.572 114.99 288.761 117.109 293.049C118.399 295.656 119.628 298.302 120.778 300.981C121.611 302.921 122.402 304.878 123.15 306.853C123.712 308.312 124.241 309.785 124.739 311.272C128.827 323.314 131.165 336.063 130.642 349.572C129.326 384.61 106.965 421.933 74.9742 442.526Z" fill="#EE4744"/>
</svg>

<svg width="230" height="556" viewBox="0 0 230 556" fill="none" xmlns="http://www.w3.org/2000/svg"><path opacity=".04" d="M74.974 442.526c-16.727 10.769-35.319 16.993-53.701 22.108a557.673 557.673 0 0 1-48.644 11.237 511.46 511.46 0 0 1-13.525 2.313l-3.118.481c-2.77.432-5.543.828-8.322 1.19l-.336.045c-2.716.372-5.427.717-8.133 1.038-8.863 1.059-17.912 1.86-26.542 1.38-2.944-.16-5.84-.465-8.658-.962a57.248 57.248 0 0 1-4.515-.975c-2.429-.63-4.784-1.417-7.067-2.414a35.352 35.352 0 0 1-1.14-.512 42.885 42.885 0 0 1-6.445-3.743c-7.391-5.188-13.044-12.517-17.398-20.745-2.176-4.113-4.026-8.452-5.604-12.861-.196-.54-.385-1.083-.597-1.608-5.191-15.196-7.975-31.538-13.464-46.581a124.279 124.279 0 0 0-6.622-15.023 137.172 137.172 0 0 0-3.89-6.936 118.39 118.39 0 0 0-10.826-15.061c-5.34-6.379-11.591-12.234-19.151-15.839a38.434 38.434 0 0 0-3.091-1.316 36.77 36.77 0 0 0-4.131-1.284c-3.88-.896-8.057-1.368-12.493-1.414a148.82 148.82 0 0 0-2.594-.04c-2.723-.019-5.458.01-8.174-.022-4.978.033-9.662-.427-14.007-1.375a37.387 37.387 0 0 1-6.589-2.235c-5.469-2.419-10.258-6.017-14.496-10.199-2.024-2.037-3.966-4.161-5.763-6.381l-.061-.062a69.06 69.06 0 0 1-1.806-2.321 92.631 92.631 0 0 1-7.372-11.304c-7.499-13.589-11.766-29.307-11.079-46.045.925-22.726 11.638-47.224 30.298-63.696 13.44-11.869 29.86-18.928 45.797-25.979 29.666-13.138 59.305-27.282 86.502-46.259 22.075-15.406 42.932-34.19 67.357-43.424 7.82-2.954 15.838-4.762 23.753-5.455 5.898-.499 11.492-.438 16.727.183 5.933.686 11.482 1.941 16.605 3.756 4.447 1.565 8.597 3.506 12.43 5.813a61.442 61.442 0 0 1 6.008 4.1 56.21 56.21 0 0 1 4.265 3.615l.203.204a45.828 45.828 0 0 1 2.412 2.427c5.686 6.076 10.458 13.028 14.271 20.794 2.433 4.814 4.568 9.863 6.481 14.982a231.233 231.233 0 0 1 3.243 9.236c.31.947.615 1.899.907 2.848 6.958 22.364 9.23 45.867 14.63 68.71.027.117.051.232.088.34 1.151 4.645 2.645 9.04 4.475 13.165a105.765 105.765 0 0 0 4.44 8.961c2.47 4.499 5.226 8.864 8.119 13.144l.638.944c4.242 6.282 8.787 12.356 13.055 18.402 1.514 2.147 3.002 4.289 4.414 6.455a178.66 178.66 0 0 1 2.659 4.086c.616.982 1.235 1.967 1.843 2.962.609.995 1.254 2.046 1.87 3.08.404.668.801 1.339 1.189 2.022 2.4 4.096 4.691 8.285 6.81 12.573a161.89 161.89 0 0 1 3.669 7.932c.833 1.94 1.624 3.897 2.372 5.872a105.478 105.478 0 0 1 1.589 4.419c4.088 12.042 6.426 24.791 5.903 38.3-1.316 35.038-23.677 72.361-55.668 92.954z" fill="#EE4744"/></svg>
